X: 4806
T:Paddy Fahy's #2
M:4/4
L:1/8
C:Paddy Fahy
K:C
c2cB cGEG|FADF EFGA|_BABG c=Bcd|egdc BGAB|!
c2cB cGEG|F2DF EFGA|_B2GA =BGFE|DG,B,D C2EG:|!
cBce g^fag|^fgec G=FEG|F2DF EFGA|Bcde fdBd|!
cBce g^fag|^fgec G=FEG|F2DF E2CE|DG,B,D C2EG:|!
